Sweet-Rainbow/icons/gitkraken.svg

<?xml version="1.0" encoding="UTF-8" standalone="no"?>
<!-- Generator: Gravit.io -->

<svg
   xmlns:dc="http://purl.org/dc/elements/1.1/"
   xmlns:cc="http://creativecommons.org/ns#"
   xmlns:rdf="http://www.w3.org/1999/02/22-rdf-syntax-ns#"
   xmlns:svg="http://www.w3.org/2000/svg"
   xmlns="http://www.w3.org/2000/svg"
   xmlns:sodipodi="http://sodipodi.sourceforge.net/DTD/sodipodi-0.dtd"
   xmlns:inkscape="http://www.inkscape.org/namespaces/inkscape"
   style="isolation:isolate"
   viewBox="0 0 36 36"
   width="48"
   height="48"
   version="1.1"
   id="svg9"
   sodipodi:docname="gitkraken.svg"
   inkscape:version="0.92.4 (5da689c313, 2019-01-14)">
  <metadata
     id="metadata15">
    <rdf:RDF>
      <cc:Work
         rdf:about="">
        <dc:format>image/svg+xml</dc:format>
        <dc:type
           rdf:resource="http://purl.org/dc/dcmitype/StillImage" />
        <dc:title></dc:title>
      </cc:Work>
    </rdf:RDF>
  </metadata>
  <defs
     id="defs13" />
  <sodipodi:namedview
     pagecolor="#ffffff"
     bordercolor="#666666"
     borderopacity="1"
     objecttolerance="10"
     gridtolerance="10"
     guidetolerance="10"
     inkscape:pageopacity="0"
     inkscape:pageshadow="2"
     inkscape:window-width="640"
     inkscape:window-height="480"
     id="namedview11"
     showgrid="false"
     inkscape:zoom="29.365243"
     inkscape:cx="25.325443"
     inkscape:cy="32"
     inkscape:current-layer="svg9"
     units="px" />
  <linearGradient
     id="_lgradient_10"
     x1="0"
     y1="0.5"
     x2="1"
     y2="0.5"
     gradientTransform="scale(48,47.249)"
     gradientUnits="userSpaceOnUse">
    <stop
       offset="0%"
       stop-opacity="1"
       style="stop-color:rgb(0,255,169)"
       id="stop2" />
    <stop
       offset="100%"
       stop-opacity="1"
       style="stop-color:rgb(240,116,179)"
       id="stop4" />
  </linearGradient>
  <g
     id="g826"
     transform="matrix(0.75,0,0,0.75,0,0.28155109)">
    <path
       id="path7"
       d="m 20.813,27.015 c 0.586,0 1.062,0.518 1.062,1.158 0,0.639 -0.476,1.158 -1.062,1.158 -0.587,0 -1.063,-0.519 -1.063,-1.158 0,-0.64 0.476,-1.158 1.063,-1.158 z m 6.375,0 c 0.586,0 1.062,0.518 1.062,1.158 0,0.639 -0.476,1.158 -1.062,1.158 -0.587,0 -1.063,-0.519 -1.063,-1.158 0,-0.64 0.476,-1.158 1.063,-1.158 z m -10e-4,8.872 c 2.522,-1.091 5.473,-3.399 6.949,-5.514 1.7,-2.42 2.614,-5.385 2.614,-8.431 0,-4.771 -2.263,-9.229 -5.982,-11.765 v 0 c -0.492,-0.339 -1.147,-0.176 -1.461,0.364 v 0 c -0.314,0.54 -0.164,1.254 0.335,1.593 v 0 0 c 3.092,2.119 4.983,5.836 4.983,9.82 0,2.536 -0.765,5.003 -2.178,7.018 -1.072,1.529 -2.469,2.738 -4.059,3.525 q 0.413,-1.096 0.924,-2.745 c 0.734,-0.772 0.775,-1.939 0.025,-2.82 l -0.419,-0.491 0.143,-0.9 c 0.212,-1.341 0.72,-2.349 1.471,-2.918 0.339,-0.257 0.683,-0.551 0.764,-0.656 0.182,-0.235 0.191,-1.411 0.017,-2.088 -0.478,-1.856 -2.981,-5.809 -4.829,-7.625 -1.05,-1.031 -1.873,-1.5 -2.667,-1.447 -0.477,0.032 -0.942,0.252 -1.442,0.651 -0.668,0.533 -2.38,2.492 -3.19,3.651 -1.729,2.475 -2.622,4.475 -2.622,5.864 0,0.922 0.075,1.07 0.807,1.599 0.809,0.587 1.278,1.445 1.523,2.798 l 0.195,1.082 -0.307,0.3 c -0.505,0.497 -0.717,1.053 -0.655,1.728 0.041,0.464 0.26,0.922 0.562,1.269 q 0.512,1.652 0.925,2.75 v 0 0 c -1.519,-0.75 -2.866,-1.884 -3.922,-3.319 -1.498,-2.061 -2.316,-4.609 -2.316,-7.226 0,-3.961 1.859,-7.643 4.909,-9.774 v 0 c 0.492,-0.339 0.638,-1.052 0.324,-1.592 v 0 c -0.314,-0.54 -0.969,-0.699 -1.461,-0.354 v 0 c -3.666,2.548 -5.897,6.972 -5.897,11.708 0,3.162 0.978,6.219 2.784,8.674 1.583,2.162 4.243,4.35 6.779,5.326 v 1.081 C 14.001,35.394 9.141,28.826 9.125,21.225 9.127,19.656 9.338,18.095 9.338,18.095 9.567,17.266 9.259,16.592 8.653,16.592 v 0 c -0.607,0 -1.262,0.678 -1.462,1.513 0,0 -0.186,1.556 -0.191,3.12 0.003,9.781 6.981,17.874 15.938,18.486 v -8.184 c 0.366,0.062 0.729,0.111 1.084,0.12 0.369,-0.016 0.705,-0.065 1.041,-0.113 v 8.161 C 34.013,39.084 40.989,30.999 41,21.225 40.993,19.661 40.804,18.104 40.804,18.104 40.602,17.27 39.946,16.592 39.34,16.592 v 0 c -0.606,0 -0.912,0.674 -0.682,1.503 0,0 0.213,1.56 0.217,3.13 -0.01,7.607 -4.871,14.184 -11.688,15.814 z M 18.81,43.32 v 0 c 1.065,0.287 1.697,1.385 1.41,2.45 v 0 c -0.287,1.065 -1.385,1.697 -2.45,1.41 v 0 C 12.67,45.81 8.16,42.79 4.95,38.6 1.74,34.41 0,29.28 0,24 0,17.64 2.53,11.53 7.03,7.03 11.53,2.53 17.64,0 24,0 30.36,0 36.47,2.53 40.97,7.03 45.47,11.53 48,17.64 48,24 c 0,5.26 -1.73,10.37 -4.91,14.55 -3.19,4.18 -7.66,7.2 -12.73,8.6 v 0 c -1.065,0.293 -2.167,-0.335 -2.46,-1.4 v 0 c -0.293,-1.065 0.335,-2.167 1.4,-2.46 v 0 C 33.52,42.13 37.25,39.61 39.91,36.13 42.56,32.64 44,28.38 44,24 44,18.7 41.89,13.61 38.14,9.86 34.39,6.11 29.3,4 24,4 18.7,4 13.61,6.11 9.86,9.86 6.11,13.61 4,18.7 4,24 c 0,4.4 1.45,8.68 4.13,12.17 2.67,3.49 6.43,6.01 10.68,7.15 z"
       style="fill:url(#_lgradient_10);fill-rule:evenodd"
       inkscape:connector-curvature="0" />
  </g>
</svg>

<?xml version="1.0" encoding="UTF-8" standalone="no"?><!-- Generator: Gravit.io --><svg xmlns="http://www.w3.org/2000/svg" xmlns:xlink="http://www.w3.org/1999/xlink" style="isolation:isolate" viewBox="0 0 48 48" width="48pt" height="48pt"><linearGradient id="_lgradient_10" x1="0" y1="0.5" x2="1" y2="0.5" gradientTransform="matrix(48,0,0,47.249,0,0)" gradientUnits="userSpaceOnUse"><stop offset="0%" stop-opacity="1" style="stop-color:rgb(0,255,169)"/><stop offset="100%" stop-opacity="1" style="stop-color:rgb(240,116,179)"/></linearGradient><path d=" M 20.813 27.015 C 21.399 27.015 21.875 27.533 21.875 28.173 C 21.875 28.812 21.399 29.331 20.813 29.331 C 20.226 29.331 19.75 28.812 19.75 28.173 C 19.75 27.533 20.226 27.015 20.813 27.015 L 20.813 27.015 L 20.813 27.015 Z  M 27.188 27.015 C 27.774 27.015 28.25 27.533 28.25 28.173 C 28.25 28.812 27.774 29.331 27.188 29.331 C 26.601 29.331 26.125 28.812 26.125 28.173 C 26.125 27.533 26.601 27.015 27.188 27.015 L 27.188 27.015 L 27.188 27.015 Z  M 27.187 35.887 C 29.709 34.796 32.66 32.488 34.136 30.373 C 35.836 27.953 36.75 24.988 36.75 21.942 C 36.75 17.171 34.487 12.713 30.768 10.177 L 30.768 10.177 C 30.276 9.838 29.621 10.001 29.307 10.541 L 29.307 10.541 C 28.993 11.081 29.143 11.795 29.642 12.134 L 29.642 12.134 L 29.642 12.134 C 32.734 14.253 34.625 17.97 34.625 21.954 C 34.625 24.49 33.86 26.957 32.447 28.972 C 31.375 30.501 29.978 31.71 28.388 32.497 Q 28.801 31.401 29.312 29.752 C 30.046 28.98 30.087 27.813 29.337 26.932 L 28.918 26.441 L 29.061 25.541 C 29.273 24.2 29.781 23.192 30.532 22.623 C 30.871 22.366 31.215 22.072 31.296 21.967 C 31.478 21.732 31.487 20.556 31.313 19.879 C 30.835 18.023 28.332 14.07 26.484 12.254 C 25.434 11.223 24.611 10.754 23.817 10.807 C 23.34 10.839 22.875 11.059 22.375 11.458 C 21.707 11.991 19.995 13.95 19.185 15.109 C 17.456 17.584 16.563 19.584 16.563 20.973 C 16.563 21.895 16.638 22.043 17.37 22.572 C 18.179 23.159 18.648 24.017 18.893 25.37 L 19.088 26.452 L 18.781 26.752 C 18.276 27.249 18.064 27.805 18.126 28.48 C 18.167 28.944 18.386 29.402 18.688 29.749 Q 19.2 31.401 19.613 32.499 L 19.613 32.499 L 19.613 32.499 C 18.094 31.749 16.747 30.615 15.691 29.18 C 14.193 27.119 13.375 24.571 13.375 21.954 C 13.375 17.993 15.234 14.311 18.284 12.18 L 18.284 12.18 C 18.776 11.841 18.922 11.128 18.608 10.588 L 18.608 10.588 C 18.294 10.048 17.639 9.889 17.147 10.234 L 17.147 10.234 C 13.481 12.782 11.25 17.206 11.25 21.942 C 11.25 25.104 12.228 28.161 14.034 30.616 C 15.617 32.778 18.277 34.966 20.813 35.942 L 20.813 37.023 C 14.001 35.394 9.141 28.826 9.125 21.225 C 9.127 19.656 9.338 18.095 9.338 18.095 C 9.567 17.266 9.259 16.592 8.653 16.592 L 8.653 16.592 C 8.046 16.592 7.391 17.27 7.191 18.105 C 7.191 18.105 7.005 19.661 7 21.225 C 7.003 31.006 13.981 39.099 22.938 39.711 L 22.938 31.527 C 23.304 31.589 23.667 31.638 24.022 31.647 C 24.391 31.631 24.727 31.582 25.063 31.534 L 25.063 39.695 C 34.013 39.084 40.989 30.999 41 21.225 C 40.993 19.661 40.804 18.104 40.804 18.104 C 40.602 17.27 39.946 16.592 39.34 16.592 L 39.34 16.592 C 38.734 16.592 38.428 17.266 38.658 18.095 C 38.658 18.095 38.871 19.655 38.875 21.225 C 38.865 28.832 34.004 35.409 27.187 37.039 L 27.187 35.887 L 27.187 35.887 Z  M 18.81 43.32 L 18.81 43.32 C 19.875 43.607 20.507 44.705 20.22 45.77 L 20.22 45.77 C 19.933 46.835 18.835 47.467 17.77 47.18 L 17.77 47.18 C 12.67 45.81 8.16 42.79 4.95 38.6 C 1.74 34.41 0 29.28 0 24 C 0 17.64 2.53 11.53 7.03 7.03 C 11.53 2.53 17.64 0 24 0 C 30.36 0 36.47 2.53 40.97 7.03 C 45.47 11.53 48 17.64 48 24 C 48 29.26 46.27 34.37 43.09 38.55 C 39.9 42.73 35.43 45.75 30.36 47.15 L 30.36 47.15 C 29.295 47.443 28.193 46.815 27.9 45.75 L 27.9 45.75 C 27.607 44.685 28.235 43.583 29.3 43.29 L 29.3 43.29 C 33.52 42.13 37.25 39.61 39.91 36.13 C 42.56 32.64 44 28.38 44 24 C 44 18.7 41.89 13.61 38.14 9.86 C 34.39 6.11 29.3 4 24 4 C 18.7 4 13.61 6.11 9.86 9.86 C 6.11 13.61 4 18.7 4 24 C 4 28.4 5.45 32.68 8.13 36.17 C 10.8 39.66 14.56 42.18 18.81 43.32 Z " fill-rule="evenodd" fill="url(#_lgradient_10)"/></svg>
